X:193
T:A St\'or, a St\'or, a Ghr\'a
R:reel
H:Originally a song, but Mary Bergin plays it as a reel.
D:Mary Bergin: Feadoga Stain 2
Z:id:hn-reel-605
M:C|
K:G
dggf d2dB|BcAG ABcA|dggf d2de|~f3c AG~G2|
d2gf dedB|cBAG ABcA|dggf d2ge|fdcA AGFA||
GBdB cBcA|~B3G (3Bcd g2|GBdB c2ec|dBgB (3ABA GA|
~B3d cBcA|~B3G (3Bcd g2|GBdB cege|dBgB (3ABA GB||
